X:15
T: Vermont Jig
C: Eamon Flynn
Z: B.Black
R: jig
M: 6/8
L: 1/8
K: G
D |: G,B,D GDB,|CEG cBc|dBG cAF |1\
GDC B,CA, :|2 AGF G2 ||
B|dgb afd|gdB cBc|dBG cAF|GDE FGA |
dgb afd|gdB cBc|dBG cAF|AGF G2 ||
B|dgb afd|gdB cBc|dBG cAF|GDC B,CA, |
G,B,D GDB,|CEG cBc|dBG cAF|AGF G2 :|
